material/.icons/material/microsoft-yammer.svg

<svg xmlns="http://www.w3.org/2000/svg" viewBox="0 0 24 24"><path d="M22 12q0 .43-.03.94-.02.51-.08 1.03-.05.53-.13 1.03t-.2.89q-.06.18-.18.3-.14.11-.34.11-.09 0-.38-.07-.29-.07-.63-.16l-.64-.19q-.3-.09-.43-.12-.21.78-.55 1.62-.33.83-.76 1.62-.43.8-.95 1.5-.52.75-1.09 1.32l-.18.13q-.1.05-.22.05-.21 0-.37-.16l-4.74-4.73H2.85q-.35 0-.6-.25t-.25-.6V7.74q0-.35.25-.6t.6-.25h7.25l4.73-4.73Q15 2 15.21 2q.12 0 .21.05.08.04.17.13.26.26.49.53.22.29.42.57 1.73 2.27 2.46 5 .18-.05.48-.14.3-.09.62-.18.31-.09.59-.16.27-.06.39-.06.2 0 .34.11.12.12.18.3.12.41.21.9.08.5.14 1.01.05.51.09 1.02V12M9.82 9.37q0-.31-.2-.52-.22-.21-.52-.21-.2 0-.38.1-.17.11-.27.29l-1.3 2.44-1.26-2.44q-.12-.23-.32-.31-.2-.08-.44-.08-.31 0-.52.21-.21.21-.21.51 0 .21.1.37l1.75 3.14q.02.04.04.1.01.06.01.11v1.55q0 .37.26.56.25.17.59.17.24 0 .39-.09.14-.09.22-.24.08-.15.11-.34.03-.19.03-.41 0-.28-.02-.52-.02-.26-.02-.48 0-.14.01-.25.01-.1.06-.18l1.8-3.12q.1-.18.1-.36m5.34-5.74L11.8 7q.2.12.3.31.12.19.12.43v2.33l5.5-1.46Q17.34 7.19 16.71 6q-.63-1.23-1.54-2.37m2.56 11.79l-5.51-1.47v2.31q0 .24-.12.43-.1.19-.3.31l3.38 3.37q.89-1.08 1.54-2.33t1.01-2.61v-.01m2.74-.58q.13-.7.19-1.41.06-.7.06-1.43 0-.71-.06-1.41t-.19-1.4q-2.07.55-4.12 1.1-2.05.54-4.13 1.1-.01.16-.01.31v.62l.01.31q2.08.56 4.13 1.1t4.12 1.11z"/></svg>

<?xml version="1.0" encoding="UTF-8"?><!DOCTYPE svg PUBLIC "-//W3C//DTD SVG 1.1//EN" "http://www.w3.org/Graphics/SVG/1.1/DTD/svg11.dtd"><svg xmlns="http://www.w3.org/2000/svg" xmlns:xlink="http://www.w3.org/1999/xlink" version="1.1" id="mdi-microsoft-yammer" width="24" height="24" viewBox="0 0 24 24"><path d="M22 12Q22 12.43 21.97 12.94 21.95 13.45 21.89 13.97 21.84 14.5 21.76 15 21.68 15.5 21.56 15.89 21.5 16.07 21.38 16.19 21.24 16.3 21.04 16.3 20.95 16.3 20.66 16.23 20.37 16.16 20.03 16.07L19.39 15.88Q19.09 15.79 18.96 15.76 18.75 16.54 18.41 17.38 18.08 18.21 17.65 19 17.22 19.8 16.7 20.5 16.18 21.25 15.61 21.82L15.43 21.95Q15.33 22 15.21 22 15 22 14.84 21.84L10.1 17.11H2.85Q2.5 17.11 2.25 16.86 2 16.61 2 16.26V7.74Q2 7.39 2.25 7.14 2.5 6.89 2.85 6.89H10.1L14.83 2.16Q15 2 15.21 2 15.33 2 15.42 2.05 15.5 2.09 15.59 2.18 15.85 2.44 16.08 2.71 16.3 3 16.5 3.28 18.23 5.55 18.96 8.28 19.14 8.23 19.44 8.14 19.74 8.05 20.06 7.96 20.37 7.87 20.65 7.8 20.92 7.74 21.04 7.74 21.24 7.74 21.38 7.85 21.5 7.97 21.56 8.15 21.68 8.56 21.77 9.05 21.85 9.55 21.91 10.06 21.96 10.57 22 11.08V12M9.82 9.37Q9.82 9.06 9.62 8.85 9.4 8.64 9.1 8.64 8.9 8.64 8.72 8.74 8.55 8.85 8.45 9.03L7.15 11.47L5.89 9.03Q5.77 8.8 5.57 8.72 5.37 8.64 5.13 8.64 4.82 8.64 4.61 8.85 4.4 9.06 4.4 9.36 4.4 9.57 4.5 9.73L6.25 12.87Q6.27 12.91 6.29 12.97 6.3 13.03 6.3 13.08V14.63Q6.3 15 6.56 15.19 6.81 15.36 7.15 15.36 7.39 15.36 7.54 15.27 7.68 15.18 7.76 15.03 7.84 14.88 7.87 14.69 7.9 14.5 7.9 14.28 7.9 14 7.88 13.76 7.86 13.5 7.86 13.28 7.86 13.14 7.87 13.03 7.88 12.93 7.93 12.85L9.73 9.73Q9.83 9.55 9.83 9.37M15.17 3.63L11.8 7Q12 7.12 12.1 7.31 12.22 7.5 12.22 7.74V10.07L17.72 8.61Q17.34 7.19 16.71 6 16.08 4.77 15.17 3.63M17.73 15.42L12.22 13.95V16.26Q12.22 16.5 12.1 16.69 12 16.88 11.8 17L15.18 20.37Q16.07 19.29 16.72 18.04 17.37 16.79 17.73 15.43V15.42M20.47 14.84Q20.6 14.14 20.66 13.43 20.72 12.73 20.72 12 20.72 11.29 20.66 10.59 20.6 9.89 20.47 9.19 18.4 9.74 16.35 10.29 14.3 10.83 12.22 11.39 12.21 11.55 12.21 11.7V12.32L12.22 12.63Q14.3 13.19 16.35 13.73 18.4 14.27 20.47 14.84Z" /></svg>
